X: 2
T: The Castle
R: jig
M: 6/8
L: 1/8
K: Ador
|:cBA afa|bag edB|GBd gfg|GBd cBA|1cBA afa|bag edB|GBd gdc|BAG A2B:|2cBc dcd|ede gab|age dBG|EFG A2 B||


Tune 273	Setting 13015

